build/img/project/Icon-1.svg

<svg id="Icon-1" viewBox="0 0 72 72" xmlns="http://www.w3.org/2000/svg">
<path fill-rule="evenodd" clip-rule="evenodd" d="M37.4508 6C40.8498 6 58.6848 12.123 61.0458 14.484C63.0138 16.452 62.9838 18.042 62.8458 25.662C62.7918 28.716 62.7168 32.877 62.7168 38.637C62.7168 59.283 39.1068 66.669 38.1018 66.972C37.8888 67.038 37.6698 67.068 37.4508 67.068C37.2318 67.068 37.0128 67.038 36.7998 66.972C35.7948 66.669 12.1848 59.283 12.1848 38.637C12.1848 32.886 12.1098 28.725 12.0558 25.671C12.0312 24.3087 12.01 23.1389 12.003 22.1252L12.0021 20.9813C12.0279 17.2234 12.3806 15.96 13.8588 14.484C16.2138 12.123 34.0488 6 37.4508 6ZM37.4508 10.5C34.9068 10.5 18.8568 16.152 17.0058 17.697C16.4598 18.246 16.4388 19.2 16.5558 25.587C16.6098 28.665 16.6848 32.847 16.6848 38.637C16.6848 54.24 33.8508 61.167 37.4478 62.442C41.0418 61.161 58.2168 54.195 58.2168 38.637C58.2168 32.841 58.2918 28.656 58.3488 25.578C58.4628 19.197 58.4418 18.243 57.8628 17.667C56.0478 16.152 39.9948 10.5 37.4508 10.5ZM48.6153 28.0185C49.4943 28.8975 49.4943 30.3225 48.6153 31.2015L36.9213 42.8985C36.5853 43.2369 36.1514 43.4563 35.6856 43.5305L35.3313 43.5585C34.7343 43.5585 34.1613 43.3215 33.7383 42.8985L28.0623 37.2165C27.1863 36.3375 27.1863 34.9095 28.0653 34.0335C28.9413 33.1545 30.3693 33.1545 31.2483 34.0335L35.3313 38.1225L45.4353 28.0185C46.3143 27.1395 47.7363 27.1395 48.6153 28.0185Z" />
</svg>

<svg id="Icon-1" viewBox="0 0 72 72" xmlns="http://www.w3.org/2000/svg"><path fill-rule="evenodd" clip-rule="evenodd" d="M37.45 6c3.4 0 21.235 6.123 23.596 8.484 1.968 1.968 1.938 3.558 1.8 11.178-.054 3.054-.13 7.215-.13 12.975 0 20.646-23.61 28.032-24.614 28.335a2.194 2.194 0 01-.651.096c-.22 0-.438-.03-.651-.096-1.005-.303-24.615-7.689-24.615-28.335 0-5.751-.075-9.912-.13-12.966-.024-1.362-.045-2.532-.052-3.546v-1.144c.025-3.758.378-5.021 1.856-6.497C16.214 12.123 34.049 6 37.45 6zm0 4.5c-2.543 0-18.593 5.652-20.444 7.197-.546.549-.567 1.503-.45 7.89.054 3.078.129 7.26.129 13.05 0 15.603 17.166 22.53 20.763 23.805 3.594-1.281 20.769-8.247 20.769-23.805 0-5.796.075-9.981.132-13.059.114-6.381.093-7.335-.486-7.911C56.048 16.152 39.995 10.5 37.45 10.5zm11.165 17.518a2.25 2.25 0 010 3.183L36.921 42.898a2.24 2.24 0 01-1.235.633l-.355.028c-.597 0-1.17-.237-1.593-.66l-5.676-5.682a2.25 2.25 0 013.186-3.183l4.083 4.089 10.104-10.104a2.247 2.247 0 013.18 0z"/></svg>
